!!!COM: Olivier (Eugène Prosper Charles) Messiaen
!!!OTL: [T776_Mes-w22p398m10-1h21m1]
**kern	**dynam	**kern	**dynam	**kern	**kern	**kern	**kern	**kern	**kern	**kern	**kern	**dynam	**kern	**dynam	**kern	**dynam	**kern	**dynam	**kern	**dynam	**kern	**dynam	**kern	**dynam	**kern	**dynam	**kern	**dynam	**kern	**dynam	**kern	**dynam	**kern	**dynam	**kern	**dynam	**kern	**dynam	**kern	**dynam
*part23	*	*part22	*	*part21	*part20	*part19	*part18	*part17	*part16	*part15	*part15	*part15	*part14	*part14	*part13	*part13	*part12	*part12	*part11	*part11	*part10	*part10	*part9	*part9	*part8	*part8	*part7	*part7	*part6	*part6	*part5	*	*part4	*	*part3	*	*part2	*	*part1	*
*staff24	*	*staff23	*	*staff22	*staff21	*staff20	*staff19	*staff18	*staff17	*staff16	*staff15	*	*staff14	*	*staff13	*	*staff12	*	*staff11	*	*staff10	*	*staff9	*	*staff8	*	*staff7	*	*staff6	*	*staff5	*	*staff4	*	*staff3	*	*staff2	*	*staff1	*
*I"Contrabass	*	*I"	*	*I"Violoncello Divisi	*I"P21	*I"Viola Divisi	*I"P19	*I"Violin II Divisi	*I"Violin I	*I"Piano	*	*	*I"Bass Drum	*	*I"Tam-tam	*	*I"Snare Drum	*	*I"Tuba	*	*I"	*	*I"3 Trombones	*	*I"Cornet in Bb	*	*I"	*	*I"4 Horns in F	*	*I"	*	*I"3 Bassoons	*	*I"Bass Clarinet in A	*	*I"2 Clarinets in A	*	*I"Cor Anglais	*
*I'Cb.	*	*I'	*	*I'Vc.	*I'Vla.	*I'Vla.	*I'Vln. II	*I'Vln. II	*I'Vln. I	*I'Pno.	*	*	*I'Perc.	*	*I'Perc.	*	*I'Perc.	*	*I'Tba.	*	*I'2.3.Tbn.	*	*I'1.Tbn.	*	*I'Tpt.	*	*I'3.4.Hn.	*	*I'1.2.Hn.	*	*I'3.Bsn.	*	*I'1.2.Bsn.	*	*I'B. Cl.	*	*I'Cl.	*	*I'C. A.	*
*clefF4	*	*clefF4	*	*clefF4	*clefC3	*clefC3	*clefG2	*clefG2	*clefG2	*clefF4	*clefF4	*	*clefX	*	*clefX	*	*clefX	*	*clefF4	*	*clefF4	*	*clefF4	*	*clefG2	*	*clefG2	*	*clefG2	*	*clefF4	*	*clefC4	*	*clefF4	*	*clefG2	*	*clefG2	*
*ITrd7c12	*	*	*	*	*	*	*	*	*	*	*	*	*	*	*	*	*	*	*	*	*	*	*	*	*ITrd1c2	*	*ITrd4c7	*	*ITrd4c7	*	*	*	*	*	*ITrd2c3	*	*ITrd2c3	*	*ITrd4c7	*
*k[]	*	*k[]	*	*k[]	*k[]	*k[]	*k[]	*k[]	*k[]	*k[]	*k[]	*	*k[]	*	*k[]	*	*k[]	*	*k[]	*	*k[]	*	*k[]	*	*k[b-e-]	*	*k[b-]	*	*k[b-]	*	*k[]	*	*k[]	*	*k[f#c#g#]	*	*k[f#c#g#]	*	*k[b-]	*
*	*	*	*	*	*	*	*	*	*	*	*	*	*C:	*	*C:	*	*C:	*	*	*	*	*	*	*	*	*	*	*	*	*	*	*	*	*	*	*	*	*	*	*
*M3/16	*	*M3/16	*	*M3/16	*M3/16	*M3/16	*M3/16	*M3/16	*M3/16	*M3/16	*M3/16	*	*M3/16	*	*M3/16	*	*M3/16	*	*M3/16	*	*M3/16	*	*M3/16	*	*M3/16	*	*M3/16	*	*M3/16	*	*M3/16	*	*M3/16	*	*M3/16	*	*M3/16	*	*M3/16	*
=1	=1	=1	=1	=1	=1	=1	=1	=1	=1	=1	=1	=1	=1	=1	=1	=1	=1	=1	=1	=1	=1	=1	=1	=1	=1	=1	=1	=1	=1	=1	=1	=1	=1	=1	=1	=1	=1	=1	=1	=1
!	!	!	!	!	!	!	!	!	!LO:TX:t=[eighth-dot]=100	!	!	!	!	!	!	!	!	!	!	!	!	!	!	!	!	!	!	!	!	!	!	!	!	!	!	!	!	!	!	!
!	!	!	!	!	!	!	!	!	!LO:TX:b:t=[p]	!	!	!	!	!	!	!	!	!	!	!	!	!	!	!	!	!	!	!	!	!	!	!	!	!	!	!	!	!	!LO:TX:t=[[eighth-dot]=100]	!
!	!LO:DY:ed=brack	!	!LO:DY:ed=brack	!LO:TX:b:t=[p]	!LO:TX:b:t=[p]	!LO:TX:b:t=[p]	!LO:TX:b:t=[p]	!LO:TX:b:t=[p]	!LO:TX:a:t=2e. moitié	!	!	!	!	!	!	!	!	!LO:DY:ed=paren	!	!	!	!	!	!	!	!	!	!	!	!	!LO:TX:a:t=3.	!LO:DY:ed=brack	!LO:TX:a:t=1.2.	!LO:DY:ed=brack	!	!	!	!LO:DY:ed=brack	!	!LO:DY:ed=brack
16FFLL	p	16FFnLL	p	16FnLL	16A#XLL	16A#XLL	16c#XLL	16c#XLL	16c#X	8r	8r	.	16%3r	.	16%3r	.	16Ra/LL	pp	16%3r	.	8r	.	16%3r	.	16%3r	.	16%3r	.	16%3r	.	16FFnLL	p	16A#X 16c#X	p	16%3r	.	16A#X 16c#	p	16d-X	p
16EEJJ	.	16EE	.	16E	16F#X	16F#X	16A#X	16A#X	16r	.	.	.	.	.	.	.	16Ra/	.	.	.	.	.	.	.	.	.	.	.	.	.	16EEn	.	16r	.	.	.	16r	.	16r	.
!	!	!	!	!	!	!	!	!	!	!	!	!	!	!	!	!	!	!	!	!	!LO:TX:a:t=2.	!	!	!	!	!	!	!	!	!	!	!	!	!	!	!	!	!	!	!
16r	.	16AAnJJ	.	16AnJJ	16F#JJ	16F#JJ	16A#JJ	16A#JJ	16r	16AAAn^	16AAn^ 16An	p p	.	.	.	.	16Ra/JJ	.	.	.	16An^	p	.	.	.	.	.	.	.	.	16AAn^JJ	.	16r	.	.	.	16r	.	16r	.
=2	=2	=2	=2	=2	=2	=2	=2	=2	=2	=2	=2	=2	=2	=2	=2	=2	=2	=2	=2	=2	=2	=2	=2	=2	=2	=2	=2	=2	=2	=2	=2	=2	=2	=2	=2	=2	=2	=2	=2	=2
16r	.	16DD#XLL	.	16D#XLL	16FnLL	16FnLL	16A#XLL	16A#XLL	16r	16EEE-X^ 16EE-X	16E-X^	.	16%3r	.	16%3r	.	16Ra/LL	.	16%3r	.	16E-X^	.	16%3r	.	16r	.	16r	.	16r	.	16EE-X^	.	16%3r	.	16r	.	16%3r	.	16%3r	.
!	!	!	!	!	!	!	!	!	!	!	!	!	!	!	!	!	!	!	!	!	!	!	!	!	!	!	!	!	!	!	!	!	!	!	!	!LO:DY:ed=brack	!	!	!	!
16CC#XLL	.	16CC#X	.	16C#X	16F	16F	16A#	16A#	16A#XLL	16r	16r	.	.	.	.	.	16Ra/	.	.	.	16r	.	.	.	16B-LL	p	16FLL 16B-	p	16FLL 16B-	p	16r	.	.	.	16CC#LL	p	.	.	.	.
16DDJJ	.	16DDnJJ	.	16DnJJ	16GnJJ	16GnJJ	16BnJJ	16BnJJ	16BnJJ	16r	16r	.	.	.	.	.	16Ra/JJ	.	.	.	16r	.	.	.	16c-XJJ	.	16GJJ 16c-X	.	16GJJ 16c-X	.	16r	.	.	.	16DDJJ	.	.	.	.	.
=3	=3	=3	=3	=3	=3	=3	=3	=3	=3	=3	=3	=3	=3	=3	=3	=3	=3	=3	=3	=3	=3	=3	=3	=3	=3	=3	=3	=3	=3	=3	=3	=3	=3	=3	=3	=3	=3	=3	=3	=3
!	!	!	!	!	!	!	!	!	!	!	!	!	!	!	!	!	!	!	!	!	!	!	!LO:TX:a:t=1.	!	!	!	!	!	!	!	!	!	!	!	!	!	!	!	!	!
16DD#XLL	.	16DD#XLL	.	16D#XLL	16C#XLL	16G#XLL	16G#XLL	16c#XLL	16c#XLL	8r	8r	.	8r	.	8r	.	16Ra/LL	.	8r	.	8r	.	16r	.	16d-X	.	16A-XLL 16d-X	.	16A-XLL 16d-X	.	16%3r	.	16%3r	.	16DD#XLL	.	16%3r	.	16%3r	.
16FF#XJJ	.	16FF#XJJ	.	16F#XJJ	16C#JJ	16G#JJ	16G#JJ	16c#JJ	16c#JJ	.	.	.	.	.	.	.	16Ra/	.	.	.	.	.	16C#XLL	p	16r	.	16A- 16d-	.	16A- 16d-	.	.	.	.	.	16FF#JJ	.	.	.	.	.
!	!	!	!	!	!	!	!	!	!	!LO:S:a	!	!	!	!	!	!	!	!	!	!	!LO:TX:a:t=3.	!	!	!	!	!	!	!	!	!	!	!	!	!	!	!	!	!	!	!
.	.	.	.	.	.	.	.	.	.	(8qC#>X/ 8qc#>X	.	.	.	.	.	.	.	.	.	.	.	.	.	.	.	.	.	.	.	.	.	.	.	.	.	.	.	.	.	.
16r	.	16r	.	16r	16r	16r	16r	16r	16r	16CCn^ 16Cn)	16ryy	.	16Rd/	p	[16Rf/	p	[16Ra/JJ	.	16Cn^	p	16Cn^	p	16C#JJ	.	16r	.	16A-JJ 16d-	.	16A-JJ 16d-	.	.	.	.	.	16r	.	.	.	.	.
=4	=4	=4	=4	=4	=4	=4	=4	=4	=4	=4	=4	=4	=4	=4	=4	=4	=4	=4	=4	=4	=4	=4	=4	=4	=4	=4	=4	=4	=4	=4	=4	=4	=4	=4	=4	=4	=4	=4	=4	=4
16EELL	.	16EELL	.	16ELL	16C#X^u	16C#X^u	16G#X^u	16c#X^u	16c#X^u	16%3r	16%3r	.	16%3r	.	8.Rf/]	.	8.Ra/]	.	16%3r	.	16%3r	.	[8.C#X^	.	[8.d-X^	.	[8.A-X^ [8.d-X	.	[8.A-X^ [8.d-X	.	16EEnLL	.	16%3r	.	16%3r	.	16%3r	.	16%3r	.
16DD#X	.	16DD#X	.	16D#X	16r	16r	16r	16r	16r	.	.	.	.	.	.	.	.	.	.	.	.	.	.	.	.	.	.	.	.	.	16EE-X	.	.	.	.	.	.	.	.	.
16FF#XJJ	.	16FF#XJJ	.	16F#XJJ	16r	16r	16r	16r	16r	.	.	.	.	.	.	.	.	.	.	.	.	.	.	.	.	.	.	.	.	.	16GG-XJJ	.	.	.	.	.	.	.	.	.
=5	=5	=5	=5	=5	=5	=5	=5	=5	=5	=5	=5	=5	=5	=5	=5	=5	=5	=5	=5	=5	=5	=5	=5	=5	=5	=5	=5	=5	=5	=5	=5	=5	=5	=5	=5	=5	=5	=5	=5	=5
!	!	!	!	!	!	!	!	!	!	!	!	!	!	!	!	!	!	!	!	!	!LO:TX:a:t=2.	!	!	!	!	!	!	!	!	!	!	!	!	!	!	!	!	!	!	!
16FF	.	16FFnLL	.	16FnLL	16r	16r	16r	16r	8r	16r	16r	.	16%3r	.	16%3r	.	8.Ra/	.	16%3r	.	16r	.	16C#X]	.	16d-X]	.	16A-X] 16d-X]	.	16A-X] 16d-X]	.	16FFLL	.	8r	.	16%3r	.	8r	.	8r	.
!	!	!LO:TX:b:i:t=cresc.	!	!LO:TX:b:i:t=cresc.	!LO:TX:b:i:t=cresc.	!LO:TX:b:i:t=cresc.	!LO:TX:b:i:t=cresc.	!LO:TX:b:i:t=cresc.	!	!	!LO:TX:b:i:t=cresc.	!	!	!	!	!	!	!	!	!	!LO:TX:b:i:t=cresc.	!	!	!	!	!	!	!	!	!	!	!	!	!	!	!	!	!	!	!
16r	.	16AAn	.	16An	16GLL	16GnLL	16BLL	16BLL	.	16AAAn^LL	16AAn^LL 16An	.	.	.	.	.	.	.	.	.	16An^LL	.	16r	.	16r	.	16r	.	16r	.	16AAn^	.	.	.	.	.	.	.	.	.
!	!	!	!	!	!	!	!	!	!LO:TX:b:i:t=cresc.	!	!	!	!	!	!	!	!	!	!	!	!	!	!	!	!	!	!	!	!	!	!	!	!LO:TX:b:i:t=cresc.	!	!	!	!LO:TX:b:i:t=cresc.	!	!LO:TX:b:i:t=cresc.	!
16r	.	16EE-XJJ	.	16E-XJJ	16GJJ	16GJJ	16BJJ	16BJJ	16B	16EEE-X^JJ 16EE-X	16E-X^JJ	.	.	.	.	.	.	.	.	.	16E-X^JJ	.	16r	.	16r	.	16r	.	16r	.	16EE-X^JJ	.	16G 16B	.	.	.	16GX 16B	.	16BX	.
=6	=6	=6	=6	=6	=6	=6	=6	=6	=6	=6	=6	=6	=6	=6	=6	=6	=6	=6	=6	=6	=6	=6	=6	=6	=6	=6	=6	=6	=6	=6	=6	=6	=6	=6	=6	=6	=6	=6	=6	=6
!	!	!	!	!	!	!	!	!	!	!	!	!	!	!	!	!	!	!	!	!	!	!	!	!	!	!	!	!	!	!	!	!	!	!	!LO:TX:b:i:t=cresc.	!	!	!	!	!
16DDLL	.	16DDnLL	.	16DnLL	16A-XLL	16A-XLL	16c#XLL	16c#XLL	16c#XLL	16%3r	16%3r	.	16%3r	.	16%3r	.	8Ra/L	.	16%3r	.	16%3r	.	16%3r	.	16%3r	.	16%3r	.	16%3r	.	16%3r	.	16A-XLL 16c#X	.	16DDLL	.	16G#XLL 16c#	.	16c#XLL	.
16EE-X	.	16EE-X	.	16E-X	16Bn	16Bn	16d	16d	16dJJ	.	.	.	.	.	.	.	.	.	.	.	.	.	.	.	.	.	.	.	.	.	.	.	16BnJJ 16d	.	16DD#X	.	16BJJ 16d	.	16dJJ	.
16EEJJ	.	16EEnJJ	.	16EnJJ	16GJJ	16GJJ	16BJJ	16BJJ	16r	.	.	.	.	.	.	.	16Ra/Jk	.	.	.	.	.	.	.	.	.	.	.	.	.	.	.	16r	.	16EEJJ	.	16r	.	16r	.
=7	=7	=7	=7	=7	=7	=7	=7	=7	=7	=7	=7	=7	=7	=7	=7	=7	=7	=7	=7	=7	=7	=7	=7	=7	=7	=7	=7	=7	=7	=7	=7	=7	=7	=7	=7	=7	=7	=7	=7	=7
!	!	!	!	!	!	!	!	!	!	!	!	!	!	!	!	!	!	!	!	!	!LO:TX:a:t=3.	!	!	!	!	!	!	!	!	!	!	!	!	!	!	!	!	!	!	!
16GG	.	16GG	.	16G	16GLL	16GLL	16BLL	16BLL	8r	16r	16r	.	16r	.	16r	.	16Ra/LL	.	16r	.	16r	.	16%3r	.	8r	.	8r	.	8r	.	8r	.	16%3r	.	16GGX	.	16%3r	.	16%3r	.
!	!	!	!	!	!	!	!	!	!	!	!	!	!	!	!	!	!	!	!	!	!	!	!	!	!	!	!	!	!	!	!	!	!	!	!	!	!	!	!	!
!	!	!	!	!	!	!	!	!	!	!LO:S:a	!	!	!	!	!LO:TX:b:i:t=cresc.	!	!	!	!	!	!	!	!	!	!	!	!	!	!	!	!	!	!	!	!	!	!	!	!	!
.	.	.	.	.	.	.	.	.	.	(8qCn>\ 8qcn>/	.	.	.	.	.	.	.	.	.	.	.	.	.	.	.	.	.	.	.	.	.	.	.	.	.	.	.	.	.	.
!	!	!	!	!	!	!	!	!	!	!	!	!	!	!	!	!	!	!LO:DY:ed=paren	!	!	!	!	!	!	!	!	!	!	!	!	!	!	!	!	!	!	!	!	!	!
16r	.	16r	.	16r	16F#X	16F#X	16B	16B	.	16BBB^ 16BB)	16ryy	.	16Rd/	.	[8Rf/	.	16Ra/	pp	16BBn^	.	16BBn^	.	.	.	.	.	.	.	.	.	.	.	.	.	16r	.	.	.	.	.
!	!	!	!	!	!	!	!	!	!	!	!	!	!	!	!	!	!	!	!	!	!	!	!	!	!LO:TX:b:i:t=cresc.	!	!LO:TX:b:i:t=cresc.	!	!LO:TX:b:i:t=cresc.	!	!LO:TX:b:i:t=cresc.	!	!	!	!	!	!	!	!	!
16FF	.	16FF	.	16F	16F#JJ	16F#JJ	16BJJ	16BJJ	16B	16r	16r	.	16r	.	.	.	16Ra/JJ	.	16r	.	16r	.	.	.	16BX	.	16F#X 16BX	.	16F#X 16BX	.	16FF	.	.	.	16r	.	.	.	.	.
=8	=8	=8	=8	=8	=8	=8	=8	=8	=8	=8	=8	=8	=8	=8	=8	=8	=8	=8	=8	=8	=8	=8	=8	=8	=8	=8	=8	=8	=8	=8	=8	=8	=8	=8	=8	=8	=8	=8	=8	=8
16EELL	.	16EELL	.	16ELL	16G#XLL	16G#XLL	16cnLL	16cnLL	16cnLL	16%3r	16%3r	.	16%3r	.	8Rf/]	.	16Ra/LL	.	16%3r	.	16%3r	.	8r	.	16cLL	.	16G#XLL 16c	.	16G#XLL 16c	.	16EEnLL	.	16%3r	.	16%3r	.	16%3r	.	16%3r	.
16GG	.	16GG	.	16G	16D	16An	16A	16d	16d	.	.	.	.	.	.	.	16Ra/	.	.	.	.	.	.	.	16dJJ	.	16A 16d	.	16A 16d	.	16GG	.	.	.	.	.	.	.	.	.
!	!	!	!	!	!	!	!	!	!	!	!	!	!	!	!	!	!	!	!	!	!	!	!LO:TX:a:t=1.	!	!	!	!	!	!	!	!	!	!	!	!	!	!	!	!	!
16FF#XJJ	.	16FF#XJJ	.	16F#XJJ	16DJJ	16AJJ	16AJJ	16dJJ	16dJJ	.	.	.	.	.	16r	.	16Ra/JJ	.	.	.	.	.	16D	.	16r	.	16AJJ 16d	.	16AJJ 16d	.	16FF#XJJ	.	.	.	.	.	.	.	.	.
=9	=9	=9	=9	=9	=9	=9	=9	=9	=9	=9	=9	=9	=9	=9	=9	=9	=9	=9	=9	=9	=9	=9	=9	=9	=9	=9	=9	=9	=9	=9	=9	=9	=9	=9	=9	=9	=9	=9	=9	=9
!	!	!	!	!	!	!	!	!	!	!	!	!	!	!	!	!	!	!	!	!	!LO:TX:a:t=2.	!	!	!	!	!	!	!	!	!	!	!	!	!	!	!	!	!	!	!
8r	.	16AAnLL	.	16AnLL	16r	16r	16r	16r	16r	16AAAn^LL	16AAn^LL 16An	.	16%3r	.	16%3r	.	[8.Ra/	.	16%3r	.	16An^LL	.	16DKL	.	16r	.	16AKL 16d	.	16AKL 16d	.	16AAn^LL	.	16%3r	.	8r	.	16%3r	.	16%3r	.
.	.	16EE-X	.	16E-X	16D^	16D^u	16A^u	16d^u	16d^u	16EEE-X^JJ 16EE-X	16E-X^JJ	.	.	.	.	.	.	.	.	.	16E-X^JJ	.	[8D^J	.	[8d^	.	[8A^J [8d	.	[8A^J [8d	.	16EE-X^JJ	.	.	.	.	.	.	.	.	.
16EE-X	.	16EE-JJ	.	16E-JJ	16r	16r	16r	16r	16r	16r	16r	.	.	.	.	.	.	.	.	.	16r	.	.	.	.	.	.	.	.	.	16r	.	.	.	16DD#X	.	.	.	.	.
=10	=10	=10	=10	=10	=10	=10	=10	=10	=10	=10	=10	=10	=10	=10	=10	=10	=10	=10	=10	=10	=10	=10	=10	=10	=10	=10	=10	=10	=10	=10	=10	=10	=10	=10	=10	=10	=10	=10	=10	=10
16EELL	.	16EEnLL	.	16EnLL	8r	8r	8r	8r	16%3r	16%3r	16%3r	.	16%3r	.	16%3r	.	8Ra/L]	.	16%3r	.	16%3r	.	8D]	.	8d]	.	8A] 8d]	.	8A] 8d]	.	16%3r	.	16%3r	.	16EELL	.	16%3r	.	16%3r	.
16FF	.	16FF	.	16F	.	.	.	.	.	.	.	.	.	.	.	.	.	.	.	.	.	.	.	.	.	.	.	.	.	.	.	.	.	.	16EE#X	.	.	.	.	.
16AA-XJJ	.	16AA-XJJ	.	16A-XJJ	16An	16An	16c#X	16c#X	.	.	.	.	.	.	.	.	[16Ra/Jk	.	.	.	.	.	16r	.	16r	.	16r	.	16r	.	.	.	.	.	16GG#JJ	.	.	.	.	.
=11	=11	=11	=11	=11	=11	=11	=11	=11	=11	=11	=11	=11	=11	=11	=11	=11	=11	=11	=11	=11	=11	=11	=11	=11	=11	=11	=11	=11	=11	=11	=11	=11	=11	=11	=11	=11	=11	=11	=11	=11
!	!	!	!	!	!	!	!	!	!LO:TX:a:t=Tous div.	!	!	!	!	!	!	!	!	!	!	!	!LO:TX:a:t=3.	!	!	!	!	!	!	!	!	!	!	!	!	!	!	!	!	!	!	!
.	.	.	.	.	.	.	.	.	.	8qC-X\ 8qc-X	.	.	.	.	.	.	.	.	.	.	.	.	.	.	.	.	.	.	.	.	.	.	.	.	.	.	.	.	.	.
16r	.	16r	.	16r	16ALL	16ALL	16c#XLL	16c#XLL	16ALL 16c#X	16BBB-X^ 16BB-X	16%3r	.	16Rd/	.	[8.Rf/	.	8.Ra/]	.	16BB-X^	.	16BB-X^	.	16%3r	.	16%3r	.	16%3r	.	16%3r	.	16r	.	16ALL 16c#X	.	16%3r	.	16ALL 16c#	.	16c#XLL	.
16GG-XLL	.	16GG-XLL	.	16G-XLL	16B-X	16B-X	16d#X	16d#X	16B-X 16d#X	16r	.	.	16r	.	.	.	.	.	16r	.	16r	.	.	.	.	.	.	.	.	.	16GG-XLL	.	16B-X 16d#X	.	.	.	16B-X 16d#X	.	16d#X	.
16FFJJ	.	16FFJJ	.	16FJJ	16c#XJJ	16c#XJJ	16eJJ	16eJJ	16c#XJJ 16e	16r	.	.	16r	.	.	.	.	.	16r	.	16r	.	.	.	.	.	.	.	.	.	16FFJJ	.	16c#XJJ 16e	.	.	.	16c#XJJ 16e	.	16eJJ	.
=	=	=	=	=	=	=	=	=	=	=	=	=	=	=	=	=	=	=	=	=	=	=	=	=	=	=	=	=	=	=	=	=	=	=	=	=	=	=	=	=
*-	*-	*-	*-	*-	*-	*-	*-	*-	*-	*-	*-	*-	*-	*-	*-	*-	*-	*-	*-	*-	*-	*-	*-	*-	*-	*-	*-	*-	*-	*-	*-	*-	*-	*-	*-	*-	*-	*-	*-	*-
!!!system-decoration: [(s1,s2,s3[(s4,s5)])][([(s6,s7)]s8[(s9,s10)]s11)][(s12,s13,s14)][({(s15,s16)})][(s17[(s18,s19)][(s20,s21)][(s22,s23)]s24)]
!!!RDF**kern: < = below
!!!RDF**kern: > = above
